svgs/sharp-light/message-captions.svg

<svg xmlns="http://www.w3.org/2000/svg" viewBox="0 0 512 512"><!--! Font Awesome Pro 6.6.0 by @fontawesome - https://fontawesome.com License - https://fontawesome.com/license (Commercial License) Copyright 2024 Fonticons, Inc. --><path d="M160 416l-32 0-96 0L0 416l0-32L0 32 0 0 32 0 480 0l32 0 0 32 0 352 0 32-32 0-176 0L192 490.7 160 512l0-38.5 0-25.5 0-32zm0-32l32 0 0 32 0 36.2 94.2-62.8 8.1-5.4 9.7 0 176 0 0-352L32 32l0 352 128 0zM80 224l224 0 16 0 0 32-16 0L80 256l-16 0 0-32 16 0zm288 0l64 0 16 0 0 32-16 0-64 0-16 0 0-32 16 0zM80 288l96 0 16 0 0 32-16 0-96 0-16 0 0-32 16 0zm160 0l192 0 16 0 0 32-16 0-192 0-16 0 0-32 16 0z"/></svg>

<svg xmlns="http://www.w3.org/2000/svg" viewBox="0 0 512 512"><!--! Font Awesome Pro 6.4.2 by @fontawesome - https://fontawesome.com License - https://fontawesome.com/license (Commercial License) Copyright 2023 Fonticons, Inc. --><path d="M160 416H128 32 0V384 32 0H32 480h32V32 384v32H480 304L192 490.7 160 512V473.5 448 416zm0-32h32v32 36.2l94.2-62.8 8.1-5.4H304 480V32H32V384H160zM80 224H304h16v32H304 80 64V224H80zm288 0h64 16v32H432 368 352V224h16zM80 288h96 16v32H176 80 64V288H80zm160 0H432h16v32H432 240 224V288h16z"/></svg>
